Sources/FrostedUI/Resources/Icons.xcassets/instagram16.imageset/instagram-16.svg

<svg width="16" height="16" viewBox="0 0 16 16" fill="none" xmlns="http://www.w3.org/2000/svg" data-fui-icon="true">
  <path
    d="M8 1.75C9.7854 1.75 10.0179 1.75735 10.7344 1.79004C11.2401 1.79777 11.7405 1.89177 12.2148 2.06738L12.2158 2.06641C12.6056 2.21024 12.9584 2.43877 13.25 2.73438L13.3604 2.84766C13.6103 3.11907 13.8055 3.43708 13.9336 3.78418H13.9326C14.1072 4.25547 14.201 4.75252 14.21 5.25488L14.2305 5.7373C14.2463 6.19076 14.25 6.65433 14.25 8C14.25 9.79426 14.2431 10.0202 14.21 10.7451C14.201 11.2477 14.1074 11.7453 13.9326 12.2168L13.9297 12.2266C13.7804 12.6135 13.5512 12.9645 13.2578 13.2578C12.9645 13.5512 12.6135 13.7804 12.2266 13.9297L12.2168 13.9336V13.9326C11.7419 14.1086 11.2406 14.2022 10.7344 14.21C10.0179 14.2427 9.78538 14.25 8 14.25C6.2138 14.25 5.98182 14.2427 5.26465 14.21C4.75865 14.2022 4.25784 14.1084 3.7832 13.9326V13.9336C3.38688 13.7871 3.02863 13.5531 2.73438 13.25V13.249C2.439 12.9575 2.21016 12.6054 2.06641 12.2158L2.06738 12.2148C1.89301 11.7438 1.79892 11.2471 1.79004 10.7451C1.75692 10.0202 1.75 9.79428 1.75 8C1.75 6.20571 1.75692 5.97974 1.79004 5.25488C1.79893 4.7525 1.89282 4.25546 2.06738 3.78418H2.06641C2.21277 3.38756 2.44671 3.0289 2.75 2.73438C3.04159 2.43875 3.39445 2.21022 3.78418 2.06641V2.06738C4.25851 1.89169 4.75895 1.79788 5.26465 1.79004C5.98183 1.75731 6.21378 1.75 8 1.75ZM8 3.25C6.21185 3.25 6.01326 3.25656 5.32324 3.28809C5.31486 3.28847 5.30624 3.28896 5.29785 3.28906C4.95865 3.29318 4.62279 3.35577 4.30469 3.47363H4.30371C4.11744 3.54237 3.94887 3.65249 3.81055 3.79492C3.80544 3.80018 3.80018 3.80544 3.79492 3.81055C3.65249 3.94887 3.54237 4.11744 3.47363 4.30371V4.30469C3.35576 4.62279 3.29318 4.95865 3.28906 5.29785C3.28896 5.30624 3.28847 5.31486 3.28809 5.32324C3.25656 6.01326 3.25 6.21185 3.25 8C3.25 9.341 3.25337 9.788 3.26855 10.2188L3.28809 10.6768L3.28906 10.7021C3.29318 11.0413 3.35576 11.3773 3.47363 11.6953V11.6963C3.52525 11.8362 3.60002 11.9665 3.69434 12.0811L3.79492 12.1895L3.81055 12.2051C3.94874 12.3475 4.11672 12.4576 4.30273 12.5264H4.30371C4.62207 12.6444 4.95831 12.7069 5.29785 12.7109C5.30627 12.711 5.31483 12.7115 5.32324 12.7119C6.01325 12.7435 6.21185 12.75 8 12.75C9.78814 12.75 9.98669 12.7435 10.6768 12.7119L10.7021 12.7109C11.0414 12.7068 11.3773 12.6442 11.6953 12.5264C11.8836 12.4523 12.0544 12.3402 12.1973 12.1973C12.3402 12.0544 12.4523 11.8836 12.5264 11.6953C12.6442 11.3773 12.7068 11.0414 12.7109 10.7021L12.7119 10.6768C12.7435 9.98669 12.75 9.78814 12.75 8C12.75 6.21185 12.7435 6.01325 12.7119 5.32324C12.7115 5.31487 12.711 5.30623 12.7109 5.29785C12.7068 4.95863 12.6442 4.62277 12.5264 4.30469V4.30371L12.4668 4.16699C12.4003 4.03464 12.3118 3.91424 12.2051 3.81055C12.1998 3.80545 12.1946 3.80017 12.1895 3.79492C12.0511 3.65246 11.8825 3.54236 11.6963 3.47363H11.6953C11.3773 3.35576 11.0413 3.29318 10.7021 3.28906C10.6938 3.28896 10.6851 3.28847 10.6768 3.28809C9.98668 3.25656 9.78814 3.25 8 3.25ZM7.37598 4.86133C7.99646 4.73799 8.64013 4.8009 9.22461 5.04297C9.80911 5.28509 10.3086 5.69578 10.6602 6.22168C11.0117 6.74783 11.2002 7.36709 11.2002 8C11.2001 8.84859 10.8627 9.66265 10.2627 10.2627C9.66265 10.8627 8.84858 11.2001 8 11.2002C7.36712 11.2001 6.74781 11.0117 6.22168 10.6602C5.69578 10.3086 5.28509 9.8091 5.04297 9.22461C4.80089 8.64013 4.73798 7.99647 4.86133 7.37598C4.98481 6.75527 5.28981 6.18479 5.7373 5.7373C6.18477 5.28981 6.75528 4.98482 7.37598 4.86133ZM8.65039 6.42871C8.33994 6.30018 7.99759 6.26646 7.66797 6.33203C7.33826 6.39767 7.03548 6.56021 6.79785 6.79785C6.5602 7.03549 6.39766 7.33825 6.33203 7.66797C6.26646 7.9976 6.30017 8.33994 6.42871 8.65039H6.42969C6.55833 8.96084 6.7763 9.22633 7.05566 9.41309C7.33515 9.59979 7.66394 9.70015 8 9.7002C8.45075 9.70014 8.8834 9.52088 9.20215 9.20215C9.5209 8.8834 9.70014 8.45076 9.7002 8C9.70016 7.66392 9.5998 7.33517 9.41309 7.05566C9.22633 6.77629 8.96084 6.55833 8.65039 6.42969V6.42871ZM11.3809 3.85938C11.5961 3.85944 11.8028 3.94458 11.9551 4.09668C12.1074 4.2489 12.1933 4.45563 12.1934 4.6709C12.1934 4.83148 12.145 4.98855 12.0557 5.12207C11.9664 5.25551 11.8398 5.35947 11.6914 5.4209C11.5429 5.48235 11.3793 5.4991 11.2217 5.46777C11.0642 5.43641 10.9192 5.35858 10.8057 5.24512C10.6921 5.13161 10.6153 4.98648 10.584 4.8291C10.5527 4.67171 10.5684 4.50861 10.6299 4.36035C10.6913 4.21213 10.7953 4.0853 10.9287 3.99609C11.0623 3.90688 11.2201 3.85938 11.3809 3.85938Z"
    fill="currentColor"
  />
</svg>

<svg xmlns="http://www.w3.org/2000/svg" width="16" height="16" fill="none" data-fui-icon="true" viewBox="0 0 16 16"><path fill="currentColor" d="M8 1.75c1.785 0 2.018.007 2.734.04a4.5 4.5 0 0 1 1.48.277h.002c.39.143.742.372 1.034.667l.11.114c.25.271.446.59.574.936h-.001c.174.471.268.969.277 1.47l.02.483c.016.454.02.917.02 2.263 0 1.794-.007 2.02-.04 2.745-.009.503-.103 1-.277 1.472l-.003.01a2.97 2.97 0 0 1-1.703 1.703l-.01.004v-.001c-.475.176-.976.27-1.483.277-.716.033-.949.04-2.734.04s-2.018-.007-2.735-.04a4.5 4.5 0 0 1-1.482-.277 2.8 2.8 0 0 1-1.049-.683v-.001a2.8 2.8 0 0 1-.668-1.033l.001-.001a4.5 4.5 0 0 1-.277-1.47c-.033-.725-.04-.95-.04-2.745 0-1.794.007-2.02.04-2.745.009-.502.103-1 .277-1.47a2.8 2.8 0 0 1 .683-1.05 2.8 2.8 0 0 1 1.034-.669v.001a4.5 4.5 0 0 1 1.48-.277c.718-.033.95-.04 2.736-.04m0 1.5c-1.788 0-1.987.007-2.677.038l-.025.001c-.34.004-.675.067-.993.185h-.001a1.3 1.3 0 0 0-.51.337 1.3 1.3 0 0 0-.32.493c-.118.319-.18.655-.185.994v.025c-.032.69-.039.889-.039 2.677 0 1.341.003 1.788.019 2.219l.02.458v.025c.004.34.067.675.185.993v.001q.078.211.22.385l.1.109.017.015c.138.143.306.253.492.321.32.118.655.18.995.185h.025c.69.032.889.039 2.677.039s1.987-.007 2.677-.038l.025-.001c.34-.004.675-.067.993-.185a1.47 1.47 0 0 0 .831-.83c.118-.319.18-.655.185-.994v-.025c.032-.69.039-.889.039-2.677s-.007-1.987-.038-2.677l-.001-.025a3 3 0 0 0-.185-.993v-.001l-.06-.137a1.3 1.3 0 0 0-.276-.372 1.3 1.3 0 0 0-.494-.321 3 3 0 0 0-.994-.185h-.025C9.987 3.256 9.788 3.25 8 3.25m-.624 1.611a3.201 3.201 0 0 1 2.887 5.402A3.201 3.201 0 1 1 7.376 4.86M8.65 6.43A1.702 1.702 0 0 0 6.43 8.65 1.7 1.7 0 0 0 9.7 8a1.7 1.7 0 0 0-1.05-1.57zm2.73-2.57a.813.813 0 1 1 .001 1.626.813.813 0 0 1 0-1.626"/></svg>
